brandFactory_export/1.Light/Codigo_1Light.svg

<?xml version="1.0" encoding="UTF-8"?>
<svg width="24px" height="24px" viewBox="0 0 24 24" version="1.1" xmlns="http://www.w3.org/2000/svg" xmlns:xlink="http://www.w3.org/1999/xlink">
    <title>1.Light/Codigo_1Light</title>
    <g id="Symbols" stroke="none" stroke-width="1" fill="none" fill-rule="evenodd">
        <g id="1.Light/Codigo_1Light" fill="#5CB615" fill-rule="nonzero">
            <path d="M22.1176471,19.789916 C22.4033613,19.789916 22.6386555,19.5647059 22.6386555,19.2857143 L22.6386555,7.85042017 L0.98487395,7.85042017 L0.98487395,19.2857143 C0.98487395,19.5647059 1.21680672,19.789916 1.50588235,19.789916 L22.1176471,19.789916 Z M1.50588235,3.98487395 C1.22016807,3.98487395 0.98487395,4.21344538 0.98487395,4.48907563 L0.98487395,6.89915966 L22.6386555,6.89915966 L22.6386555,4.48907563 C22.6386555,4.21008403 22.4067227,3.98487395 22.1176471,3.98487395 L1.50588235,3.98487395 Z M22.1176471,3.0302521 C22.9478992,3.0302521 23.6235294,3.68571429 23.6235294,4.48907563 L23.6235294,19.2890756 C23.6235294,20.092437 22.9478992,20.7478992 22.1176471,20.7478992 L1.50588235,20.7478992 C0.675630252,20.7478992 0,20.092437 0,19.2890756 L0,4.48907563 C0,3.68571429 0.675630252,3.0302521 1.50588235,3.0302521 L22.1176471,3.0302521 Z M5.68739496,13.9243697 L8.10420168,16.0890756 C8.30252101,16.2672269 8.31596639,16.5697479 8.13109244,16.7647059 C8.03361345,16.8655462 7.90252101,16.9159664 7.76806723,16.9159664 C7.65042017,16.9159664 7.52941176,16.8722689 7.43193277,16.7882353 L4.62184874,14.2705882 C4.5210084,14.1798319 4.46386555,14.0521008 4.46386555,13.9176471 C4.46386555,13.7831933 4.52436975,13.6554622 4.62521008,13.5647059 L7.43529412,11.0907563 C7.63697479,10.9159664 7.94957983,10.9294118 8.13109244,11.1243697 C8.31596639,11.3193277 8.29915966,11.6218487 8.09747899,11.8 L5.68739496,13.9243697 Z M5.03193277,6.17647059 C4.65210084,6.17647059 4.34621849,5.87731092 4.34621849,5.51428571 C4.34621849,5.14789916 4.65210084,4.8487395 5.03193277,4.8487395 C5.41176471,4.8487395 5.71428571,5.14453782 5.71428571,5.51428571 C5.71428571,5.87731092 5.40840336,6.17647059 5.03193277,6.17647059 Z M7.08571429,6.17647059 C6.70588235,6.17647059 6.4,5.87731092 6.4,5.51428571 C6.4,5.14789916 6.70588235,4.8487395 7.08571429,4.8487395 C7.46554622,4.8487395 7.77142857,5.14453782 7.77142857,5.51428571 C7.77142857,5.87731092 7.46554622,6.17647059 7.08571429,6.17647059 Z M2.97478992,6.17647059 C2.59495798,6.17647059 2.28907563,5.87731092 2.28907563,5.51428571 C2.28907563,5.14789916 2.59495798,4.8487395 2.97478992,4.8487395 C3.35462185,4.8487395 3.6605042,5.14453782 3.6605042,5.51428571 C3.6605042,5.87731092 3.35462185,6.17647059 2.97478992,6.17647059 L2.97478992,6.17647059 Z M16.1310924,11.0941176 L18.9411765,13.5680672 C19.0420168,13.6588235 19.102521,13.7831933 19.102521,13.9210084 C19.102521,14.0554622 19.0453782,14.1831933 18.9445378,14.2739496 L16.1344538,16.7915966 C16.0403361,16.8756303 15.9193277,16.9193277 15.7983193,16.9193277 C15.6638655,16.9193277 15.5327731,16.8689076 15.4352941,16.7680672 C15.2504202,16.5731092 15.2638655,16.2705882 15.4621849,16.092437 L17.8823529,13.9243697 L15.4689076,11.8033613 C15.2672269,11.6252101 15.2504202,11.3226891 15.4352941,11.1277311 C15.6201681,10.9327731 15.9327731,10.9193277 16.1310924,11.0941176 L16.1310924,11.0941176 Z M13.1260504,11.0403361 C13.3747899,11.1478992 13.4857143,11.4302521 13.3747899,11.6722689 L11.0957983,16.6033613 C11.0151261,16.7815126 10.8336134,16.8857143 10.6453782,16.8857143 C10.5781513,16.8857143 10.5109244,16.8722689 10.4436975,16.8420168 C10.194958,16.7344538 10.0840336,16.4521008 10.194958,16.210084 L12.4739496,11.2789916 C12.5848739,11.0403361 12.8773109,10.9327731 13.1260504,11.0403361 L13.1260504,11.0403361 Z" id="Codigo_1Light"></path>
        </g>
    </g>
</svg>

<svg width="24" height="24" viewBox="0 0 24 24" xmlns="http://www.w3.org/2000/svg"><path d="M22.118 19.79a.514.514 0 00.52-.504V7.85H.986v11.436c0 .279.232.504.52.504h20.613zM1.506 3.985a.516.516 0 00-.521.504V6.9h21.654V4.49a.512.512 0 00-.521-.504H1.506zm20.612-.955c.83 0 1.506.656 1.506 1.46v14.8c0 .802-.676 1.458-1.506 1.458H1.506c-.83 0-1.506-.656-1.506-1.459V4.49C0 3.686.676 3.03 1.506 3.03h20.612zM5.688 13.924l2.416 2.165a.47.47 0 01.027.676.5.5 0 01-.363.151.519.519 0 01-.336-.128l-2.81-2.517a.474.474 0 01-.158-.353c0-.135.06-.263.161-.353l2.81-2.474a.506.506 0 01.696.033.467.467 0 01-.034.676l-2.41 2.124zm-.656-7.748c-.38 0-.686-.299-.686-.662 0-.366.306-.665.686-.665a.67.67 0 01.682.665.674.674 0 01-.682.662zm2.054 0c-.38 0-.686-.299-.686-.662 0-.366.306-.665.686-.665.38 0 .685.296.685.665a.675.675 0 01-.685.662zm-4.111 0c-.38 0-.686-.299-.686-.662 0-.366.306-.665.686-.665.38 0 .686.296.686.665a.675.675 0 01-.686.662zm13.156 4.918l2.81 2.474a.472.472 0 01.004.706l-2.81 2.518a.506.506 0 01-.7-.024.47.47 0 01.027-.676l2.42-2.168-2.413-2.12a.467.467 0 01-.034-.676.507.507 0 01.696-.034zm-3.005-.054c.249.108.36.39.249.632l-2.28 4.931a.492.492 0 01-.651.239c-.249-.108-.36-.39-.249-.632l2.279-4.931c.11-.239.403-.346.652-.239z" fill="#5CB615" fill-rule="nonzero"/></svg>
